public/svg/svg-1.svg

<svg xmlns="http://www.w3.org/2000/svg" width="28" height="20"><path fill="currentColor" d="M23 20c-2.2 0-4-1.8-4-4 0-.2 0-.4.1-.7.1-.3.3-.4.6-.4.3.1.4.3.4.6v.4c0 1.7 1.3 3 3 3s3-1.3 3-3c0-.7-.2-1.3-.6-1.8-.2-.2-.1-.5.1-.7.2-.2.5-.1.7.1.5.7.8 1.6.8 2.5-.1 2.2-1.9 4-4.1 4zM6 20c-1 0-1.9-.4-2.6-1-.7-.6-1.2-1.5-1.3-2.4-.1-.3.1-.6.4-.6.2 0 .5.2.5.4.2 1.5 1.5 2.6 3 2.6s2.8-1.1 3-2.6c0-.2.3-.4.5-.4.3 0 .5.3.4.6-.1.9-.6 1.8-1.3 2.4-.7.6-1.6 1-2.6 1z"/><path fill="currentColor" d="M18.5 17H.5c-.1 0-.3-.1-.4-.2-.1-.1-.1-.3-.1-.4l.3-1.5c.2-1.2.7-2.3 1.4-3.3s1.5-1.9 2.5-2.5c.1-.1.2-.1.3-.1h9c.3 0 .5.2.5.5V14h3.7l.6-1.7c.5-1.3.7-2.6.7-3.9 0-1.2-.2-2.4-.6-3.5L18 3.7c-.1-.2 0-.3.1-.5.1-.1.2-.2.4-.2h4c.3 0 .5.2.5.5v2c0 .1-.1.3-.1.4l-.5.5.9.5c1.4.7 2.6 1.8 3.5 3.2.8 1.4 1.3 2.9 1.3 4.5 0 .3-.2.5-.5.5h-.1-.1-.1s-1.6-.8-3.8-.9h-.1c-2 0-4.5 2.8-4.5 2.8-.1-.1-.3 0-.4 0zM1.1 16h17.2c.3-.3.8-.8 1.5-1.4 1.3-1.1 2.5-1.6 3.6-1.6h.2c1.5.1 2.7.4 3.4.7-.3-2.6-1.8-4.8-4.2-6l-1.5-.8c-.2 0-.3-.2-.3-.3 0-.2 0-.3.1-.4l.9-.9V4h-2.8l.2.5c.4 1.3.6 2.6.6 3.9 0 1.5-.3 2.9-.8 4.3l-.8 2c0 .2-.2.3-.4.3h-4.5c-.3 0-.5-.2-.5-.5V10H4.7c-1.8 1.2-3 3-3.4 5.1l-.2.9z"/><path fill="currentColor" d="M12.5 10h-6C5.7 10 5 9.3 5 8.5S5.7 7 6.5 7h6c.8 0 1.5.7 1.5 1.5s-.7 1.5-1.5 1.5zm-6-2c-.3 0-.5.2-.5.5s.2.5.5.5h6c.3 0 .5-.2.5-.5s-.2-.5-.5-.5h-6zM17.5 3c-.8 0-1.5-.7-1.5-1.5S16.7 0 17.5 0 19 .7 19 1.5 18.3 3 17.5 3zm0-2c-.3 0-.5.2-.5.5s.2.5.5.5.5-.2.5-.5-.2-.5-.5-.5z"/><path fill="currentColor" d="M18.5 4c-.2 0-.4-.1-.4-.3l-.5-1.1c-.1-.2 0-.5.2-.7.2-.1.5 0 .7.2l.5 1.1c.1.2 0 .5-.2.7-.1.1-.2.1-.3.1zM23 18.5c-1.4 0-2.5-1.1-2.5-2.5s1.1-2.5 2.5-2.5 2.5 1.1 2.5 2.5-1.1 2.5-2.5 2.5zm0-4c-.8 0-1.5.7-1.5 1.5s.7 1.5 1.5 1.5 1.5-.7 1.5-1.5-.7-1.5-1.5-1.5zM25 12.6c-.1 0-.3-.1-.4-.2-.5-.6-1.2-1-2-1.3-.6-.1-1.1-.1-1.1-.1-.3 0-.5-.2-.5-.5s.2-.5.5-.5c.1 0 2.3-.1 3.9 1.8.2.2.2.5-.1.7-.1 0-.2.1-.3.1zM11.5 15c-.3 0-.5-.2-.5-.5 0-1.4-1.1-2.5-2.5-2.5H6.7c-.7 0-1.3.3-1.8.7l-2.1 2.1c-.2.2-.5.2-.7 0-.2-.2-.2-.5 0-.7L4.3 12c.7-.7 1.5-1 2.5-1h1.8c1.9 0 3.5 1.6 3.5 3.5-.1.3-.3.5-.6.5zM6 18.5c-1.1 0-2.1-.8-2.4-1.9-.1-.3.1-.5.4-.6.3-.1.5.1.6.4.1.6.7 1.1 1.4 1.1s1.3-.5 1.4-1.1c.1-.3.3-.4.6-.4.3.1.4.3.4.6-.3 1.1-1.3 1.9-2.4 1.9z"/></svg>

<?xml version="1.0" encoding="utf-8"?>
<!-- Generator: Adobe Illustrator 27.0.0, SVG Export Plug-In . SVG Version: 6.00 Build 0)  -->
<svg version="1.1" id="Livello_1" xmlns="http://www.w3.org/2000/svg" xmlns:xlink="http://www.w3.org/1999/xlink" x="0px" y="0px"
	 viewBox="0 0 28 20" style="enable-background:new 0 0 28 20;" xml:space="preserve">
<style type="text/css">
	.st0{fill:#FFFFFF;}
</style>
<path class="st0" d="M23,20c-2.2,0-4-1.8-4-4c0-0.2,0-0.4,0.1-0.7s0.3-0.4,0.6-0.4c0.3,0.1,0.4,0.3,0.4,0.6v0.4c0,1.7,1.3,3,3,3
	s3-1.3,3-3c0-0.7-0.2-1.3-0.6-1.8c-0.2-0.2-0.1-0.5,0.1-0.7s0.5-0.1,0.7,0.1c0.5,0.7,0.8,1.6,0.8,2.5C27,18.2,25.2,20,23,20z M6,20
	c-1,0-1.9-0.4-2.6-1s-1.2-1.5-1.3-2.4C2,16.3,2.2,16,2.5,16C2.7,16,3,16.2,3,16.4C3.2,17.9,4.5,19,6,19s2.8-1.1,3-2.6
	C9,16.2,9.3,16,9.5,16c0.3,0,0.5,0.3,0.4,0.6c-0.1,0.9-0.6,1.8-1.3,2.4S7,20,6,20z"/>
<path class="st0" d="M18.5,17h-18c-0.1,0-0.3-0.1-0.4-0.2S0,16.5,0,16.4l0.3-1.5c0.2-1.2,0.7-2.3,1.4-3.3s1.5-1.9,2.5-2.5
	C4.3,9,4.4,9,4.5,9h9C13.8,9,14,9.2,14,9.5V14h3.7l0.6-1.7C18.8,11,19,9.7,19,8.4c0-1.2-0.2-2.4-0.6-3.5L18,3.7
	c-0.1-0.2,0-0.3,0.1-0.5C18.2,3.1,18.3,3,18.5,3h4C22.8,3,23,3.2,23,3.5v2c0,0.1-0.1,0.3-0.1,0.4l-0.5,0.5l0.9,0.5
	c1.4,0.7,2.6,1.8,3.5,3.2c0.8,1.4,1.3,2.9,1.3,4.5c0,0.3-0.2,0.5-0.5,0.5h-0.1h-0.1h-0.1c0,0-1.6-0.8-3.8-0.9h-0.1
	c-2,0-4.5,2.8-4.5,2.8C18.8,16.9,18.6,17,18.5,17z M1.1,16h17.2c0.3-0.3,0.8-0.8,1.5-1.4c1.3-1.1,2.5-1.6,3.6-1.6h0.2
	c1.5,0.1,2.7,0.4,3.4,0.7c-0.3-2.6-1.8-4.8-4.2-6l-1.5-0.8c-0.2,0-0.3-0.2-0.3-0.3c0-0.2,0-0.3,0.1-0.4L22,5.3V4h-2.8l0.2,0.5
	C19.8,5.8,20,7.1,20,8.4c0,1.5-0.3,2.9-0.8,4.3l-0.8,2c0,0.2-0.2,0.3-0.4,0.3h-4.5c-0.3,0-0.5-0.2-0.5-0.5V10H4.7
	c-1.8,1.2-3,3-3.4,5.1C1.3,15.1,1.1,16,1.1,16z"/>
<path class="st0" d="M12.5,10h-6C5.7,10,5,9.3,5,8.5S5.7,7,6.5,7h6C13.3,7,14,7.7,14,8.5S13.3,10,12.5,10z M6.5,8C6.2,8,6,8.2,6,8.5
	S6.2,9,6.5,9h6C12.8,9,13,8.8,13,8.5S12.8,8,12.5,8H6.5z M17.5,3C16.7,3,16,2.3,16,1.5S16.7,0,17.5,0S19,0.7,19,1.5S18.3,3,17.5,3z
	 M17.5,1C17.2,1,17,1.2,17,1.5S17.2,2,17.5,2S18,1.8,18,1.5S17.8,1,17.5,1z"/>
<path class="st0" d="M18.5,4c-0.2,0-0.4-0.1-0.4-0.3l-0.5-1.1c-0.1-0.2,0-0.5,0.2-0.7c0.2-0.1,0.5,0,0.7,0.2L19,3.2
	c0.1,0.2,0,0.5-0.2,0.7C18.7,4,18.6,4,18.5,4z M23,18.5c-1.4,0-2.5-1.1-2.5-2.5s1.1-2.5,2.5-2.5s2.5,1.1,2.5,2.5S24.4,18.5,23,18.5z
	 M23,14.5c-0.8,0-1.5,0.7-1.5,1.5c0,0.8,0.7,1.5,1.5,1.5s1.5-0.7,1.5-1.5S23.8,14.5,23,14.5z M25,12.6c-0.1,0-0.3-0.1-0.4-0.2
	c-0.5-0.6-1.2-1-2-1.3C22,11,21.5,11,21.5,11c-0.3,0-0.5-0.2-0.5-0.5s0.2-0.5,0.5-0.5c0.1,0,2.3-0.1,3.9,1.8
	c0.2,0.2,0.2,0.5-0.1,0.7C25.2,12.5,25.1,12.6,25,12.6z M11.5,15c-0.3,0-0.5-0.2-0.5-0.5c0-1.4-1.1-2.5-2.5-2.5H6.7
	c-0.7,0-1.3,0.3-1.8,0.7l-2.1,2.1c-0.2,0.2-0.5,0.2-0.7,0s-0.2-0.5,0-0.7L4.3,12c0.7-0.7,1.5-1,2.5-1h1.8c1.9,0,3.5,1.6,3.5,3.5
	C12,14.8,11.8,15,11.5,15z M6,18.5c-1.1,0-2.1-0.8-2.4-1.9C3.5,16.3,3.7,16.1,4,16s0.5,0.1,0.6,0.4C4.7,17,5.3,17.5,6,17.5
	s1.3-0.5,1.4-1.1C7.5,16.1,7.7,16,8,16c0.3,0.1,0.4,0.3,0.4,0.6C8.1,17.7,7.1,18.5,6,18.5z"/>
</svg>
